img/content-images/man.svg

<svg width="355" height="252" viewBox="0 0 355 252" fill="none" xmlns="http://www.w3.org/2000/svg">
<g clip-path="url(#clip0)">
<path d="M152.619 179.625C152.619 179.625 152.802 165.921 129.436 172.341C106.318 178.692 81.6572 253.701 81.6572 253.701C81.6572 253.701 91.7406 261.423 95.7088 262.622C99.6728 263.82 124.438 218.038 127.767 219.913C130.124 221.239 132.334 249.825 132.334 249.825C132.334 249.825 160.136 190.576 152.619 179.625Z" fill="#254A63"/>
<path d="M159.607 184.808C159.607 184.808 179.911 166.29 194.505 169.255C216.319 173.688 236.817 230.486 237.358 235.917C237.9 241.348 232.753 259.677 211.349 248.273C203.855 244.28 194.241 219.868 195.409 222.324C196.582 224.779 193.033 243.295 193.033 243.295C193.033 243.295 153.882 197.198 159.607 184.808Z" fill="#254A63"/>
<path d="M197.396 231.719C198.054 209.784 193.014 179.152 194.541 169.602C194.541 169.602 173.795 163.743 160.615 164.939C147.42 166.14 138.212 169.598 136.775 170.208C134.329 171.252 119.991 305.712 121.383 311.983C123.074 319.604 201.638 319.214 195.222 308.475C195.223 308.475 197.173 239.192 197.396 231.719Z" fill="#0B8A85"/>
<path d="M122.341 176.784C122.341 176.784 114.139 323.806 114.139 328.039C114.139 332.272 129.744 330.575 131.855 330.999C133.967 331.421 143.747 172.043 143.747 168.633C143.747 167.505 122.341 172.5 122.341 176.784Z" fill="#254A63"/>
<path d="M196.305 169.255C196.305 169.255 187.758 166.325 181.462 166.099C180.195 166.054 176.516 257.703 176.516 270.404C176.516 273.397 174.825 327.14 174.404 328.411C173.982 329.679 204.397 325.445 206.087 322.906C207.777 320.363 200.951 182.38 196.305 169.255Z" fill="#254A63"/>
<path d="M175.389 165.423L173.782 123.993L157.678 125.118L155.365 165.595C160.119 168.957 170.235 169.025 175.389 165.423Z" fill="#EEAB67"/>
<path d="M136.18 106.271C138.819 113.121 138.766 118.395 134.302 120.378C129.843 122.363 120.2 119.751 117.563 112.899C114.921 106.041 116.402 98.881 120.866 96.8971C125.325 94.9145 133.544 99.4175 136.18 106.271Z" fill="#FBCA8E"/>
<path d="M125.162 114.404C128.747 137.864 145.435 153.613 168.981 151.529C190.402 149.634 205.214 119.627 205.816 92.2539C206.418 64.8794 191.782 43.2262 165.919 43.6275C126.306 44.2416 117.608 64.9641 125.162 114.404Z" fill="#FBCA8E"/>
<path d="M193.185 104.086C190.461 110.907 190.449 116.177 194.889 118.219C199.321 120.257 208.995 117.767 211.718 110.947C214.444 104.123 213.051 96.9475 208.615 94.906C204.181 92.8658 195.906 97.2663 193.185 104.086Z" fill="#FBCA8E"/>
<path d="M158.882 101.609C165.156 100.351 170.442 101.384 171.619 106.048C172.794 110.713 166.446 113.559 161.238 114.172C156.03 114.785 153.999 102.588 158.882 101.609Z" fill="url(#paint0_linear)"/>
<path d="M156.123 102.489C156.123 102.489 156.572 102.305 157.362 102.006C157.764 101.876 158.258 101.711 158.834 101.557C159.41 101.417 160.064 101.251 160.793 101.152C161.52 101.036 162.318 100.95 163.17 100.943C164.02 100.923 164.926 100.968 165.856 101.123C166.784 101.274 167.745 101.526 168.672 101.944C169.595 102.364 170.508 102.944 171.226 103.785C171.936 104.623 172.386 105.773 172.332 106.904C172.298 108.041 171.786 109.034 171.207 109.813C170.613 110.593 169.934 111.235 169.234 111.735C168.548 112.258 167.849 112.662 167.193 112.998C166.544 113.349 165.919 113.601 165.369 113.825C164.811 114.03 164.331 114.217 163.922 114.333C163.106 114.573 162.64 114.696 162.64 114.696C162.64 114.696 163.066 114.461 163.812 114.073C164.189 113.886 164.621 113.61 165.133 113.336C165.391 113.201 165.643 113.02 165.921 112.851C166.196 112.677 166.492 112.509 166.777 112.297C167.361 111.899 167.972 111.439 168.565 110.913C169.172 110.398 169.71 109.766 170.184 109.095C170.65 108.416 170.947 107.627 170.963 106.854C170.981 106.08 170.678 105.325 170.143 104.7C169.621 104.061 168.884 103.558 168.094 103.186C167.299 102.823 166.466 102.521 165.621 102.347C164.779 102.174 163.944 102.045 163.143 101.998C162.342 101.946 161.577 101.934 160.869 101.959C159.447 101.998 158.268 102.169 157.434 102.275C156.602 102.42 156.123 102.489 156.123 102.489Z" fill="#A56052"/>
<path d="M156.146 88.3586C156.721 92.6709 159.134 101.569 147.028 102.581C134.922 103.592 137.799 92.6794 137.799 92.6794C137.799 92.6794 150.616 88.9243 156.146 88.3586Z" fill="url(#paint1_linear)"/>
<path d="M150.688 102.726C151.601 102.726 152.34 101.984 152.34 101.07C152.34 100.155 151.601 99.4139 150.688 99.4139C149.776 99.4139 149.036 100.155 149.036 101.07C149.036 101.984 149.776 102.726 150.688 102.726Z" fill="#643619"/>
<path d="M153.535 88.0391C139.654 89.0069 132.039 94.5367 140.861 94.4662C149.683 94.3965 162.689 87.4008 153.535 88.0391Z" fill="#994D1D"/>
<path d="M170.691 75.5804C170.117 79.8927 166.77 101.569 178.877 102.581C190.983 103.593 187.943 84.2249 187.943 84.2249C187.943 84.2249 176.221 76.1462 170.691 75.5804Z" fill="url(#paint2_linear)"/>
<path d="M175.533 102.726C176.445 102.726 177.185 101.984 177.185 101.07C177.185 100.155 176.445 99.414 175.533 99.414C174.621 99.414 173.881 100.155 173.881 101.07C173.881 101.984 174.621 102.726 175.533 102.726Z" fill="#643619"/>
<path d="M173.67 75.4246C186.974 79.507 193.149 86.6166 184.57 84.5523C175.991 82.4893 164.896 72.7326 173.67 75.4246Z" fill="#994D1D"/>
<path d="M134.603 107.502C137.585 107.502 140.002 106.745 140.002 105.811C140.002 104.877 137.585 104.12 134.603 104.12C131.621 104.12 129.204 104.877 129.204 105.811C129.204 106.745 131.621 107.502 134.603 107.502Z" fill="#F4A29D"/>
<path d="M191.529 107.502C194.51 107.502 196.928 106.745 196.928 105.811C196.928 104.877 194.51 104.12 191.529 104.12C188.547 104.12 186.13 104.877 186.13 105.811C186.13 106.745 188.547 107.502 191.529 107.502Z" fill="#F4A29D"/>
<path d="M127.04 130.673C132.088 142.134 139.141 150.397 147.218 153.579C161.836 159.338 174.499 157.547 185.323 151.435C209.675 137.68 204.811 68.0091 204.811 68.0091L197.934 69.3561C197.934 69.3561 199.74 115.091 193.398 122.58C190.699 125.772 179.77 119.554 165.31 119.414C148.215 119.246 134.172 126.876 131.676 123.457C128.682 119.367 124.131 95.4483 129.511 69.0053C131.652 58.4665 118.998 68.6659 118.998 68.6659C118.998 68.6659 120.514 115.856 127.04 130.673Z" fill="#B06523"/>
<path d="M149.419 41.0622L153.761 37.9355C159.535 33.1308 178.932 28.1574 185.947 33.9448C184.287 33.9768 185.437 34.961 183.768 35.0471C193.443 37.2274 209.319 41.3846 210.432 62.5247C210.936 72.1171 209.466 85.3557 207.649 94.5075C205.434 94.7331 205.547 93.7333 203.789 95.1522C202.42 96.2574 202.102 96.806 201.598 97.8172C202.027 87.0898 198.558 72.5341 190.814 64.0483C187.199 60.0889 177.552 61.8601 172.317 60.7394C165.757 59.3347 159.62 57.0063 154.59 52.7196C148.759 47.7534 145.353 45.1255 149.419 41.0622Z" fill="#B06523"/>
<path d="M157.736 37.7526C163.997 39.8938 172.131 41.5667 175.683 47.6203L173.739 47.034C180.306 54.917 160.779 76.3724 155.745 81.4917C149.996 87.3403 142.527 90.2984 135.345 92.0305C135.175 90.7659 135.322 89.3748 135.614 88.0555C135.907 87.3054 136.125 86.586 136.191 85.974C135.972 86.6223 135.77 87.3282 135.614 88.0555C134.809 90.0842 133.366 92.3592 132.215 93.5426C129.532 96.3036 123.197 104.925 122.595 111.629C113.858 76.7752 112.222 56.5964 128.458 41.9553C136.69 34.5262 153.432 36.281 157.736 37.7526Z" fill="#B06523"/>
<path d="M148.783 132.614C148.783 132.614 148.877 132.592 149.053 132.552C149.231 132.524 149.48 132.424 149.821 132.407C150.164 132.414 150.621 132.387 151.086 132.543C151.334 132.59 151.576 132.683 151.826 132.793C152.086 132.892 152.339 133.021 152.592 133.163C153.12 133.431 153.641 133.761 154.204 134.058C154.482 134.216 154.771 134.365 155.073 134.493C155.373 134.628 155.669 134.783 155.993 134.886C156.615 135.155 157.306 135.284 157.987 135.474C158.697 135.566 159.401 135.735 160.139 135.732L161.233 135.808C161.602 135.799 161.968 135.789 162.332 135.78C162.697 135.773 163.058 135.765 163.416 135.758C163.774 135.728 164.129 135.697 164.478 135.667C165.174 135.599 165.855 135.58 166.495 135.472C167.135 135.38 167.745 135.311 168.31 135.249C168.876 135.193 169.387 135.081 169.847 135.022C170.308 134.958 170.709 134.901 171.04 134.854C171.705 134.769 172.09 134.733 172.09 134.733C172.09 134.733 171.738 134.884 171.111 135.127C170.796 135.244 170.413 135.387 169.975 135.55C169.531 135.7 169.041 135.911 168.48 136.046C167.923 136.199 167.318 136.362 166.674 136.518C166.034 136.698 165.339 136.804 164.619 136.91C164.259 136.965 163.893 137.021 163.522 137.078C163.149 137.12 162.765 137.133 162.381 137.152C161.996 137.169 161.608 137.187 161.218 137.206L160.035 137.149C159.246 137.132 158.461 136.935 157.688 136.811C156.926 136.597 156.182 136.367 155.504 136.034C155.155 135.892 154.833 135.713 154.527 135.523C154.213 135.346 153.922 135.154 153.65 134.957C153.085 134.588 152.612 134.174 152.161 133.851C151.938 133.675 151.72 133.528 151.51 133.399C151.304 133.255 151.103 133.128 150.902 133.051C150.506 132.835 150.144 132.773 149.829 132.687C149.507 132.631 149.233 132.646 149.057 132.627C148.879 132.619 148.783 132.614 148.783 132.614Z" fill="#46271E"/>
<path d="M196.475 170.569C204.255 188.036 231.486 216.107 235.531 228.895C239.577 241.683 229.463 252.444 216.859 248.857C204.255 245.27 197.876 217.354 194.763 205.969C191.651 194.585 187.761 183.98 184.805 181.173C185.608 175.472 192.09 170.973 196.475 170.569Z" fill="#FBCA8E"/>
</g>
<path d="M272.066 105.569C300.428 105.569 323.42 82.5257 323.42 54.1001C323.42 25.6744 300.428 2.63086 272.066 2.63086C243.705 2.63086 220.713 25.6744 220.713 54.1001C220.713 82.5257 243.705 105.569 272.066 105.569Z" fill="#254A63"/>
<path d="M264.06 59.1403C264.092 58.8072 264.132 58.4578 264.181 58.0907C264.23 57.7249 264.314 57.1883 264.432 56.4832C264.873 53.8502 265.617 51.7816 266.665 50.278C267.713 48.7744 269.152 47.6686 270.983 46.9605C271.753 46.6795 272.832 46.3535 274.222 45.9828C277.503 45.1083 279.292 43.7897 279.587 42.0263C279.807 40.7099 279.54 39.5706 278.784 38.6099C278.029 37.6493 276.888 37.0401 275.364 36.784C273.628 36.4915 272.21 36.7854 271.111 37.6642C270.01 38.543 269.299 39.9463 268.977 41.874L268.941 42.0861L253.777 39.5364C255.018 33.9924 257.678 30.0217 261.758 27.6264C265.836 25.2297 271.064 24.5687 277.446 25.6411C283.474 26.6551 288.081 28.8553 291.264 32.2426C294.447 35.6305 295.66 39.5806 294.905 44.0942C294.634 45.716 294.167 47.1306 293.508 48.3368C292.847 49.5436 291.987 50.5776 290.927 51.4379C289.67 52.4598 287.485 53.4823 284.373 54.5056C283.097 54.9205 282.139 55.2421 281.496 55.4727C280.158 55.9729 279.233 56.5308 278.72 57.1456C278.208 57.7605 277.841 58.7261 277.621 60.0426C277.597 60.1842 277.572 60.4034 277.547 60.7008C277.52 60.999 277.493 61.2416 277.461 61.4295L264.06 59.1403ZM260.047 77.5009L262.443 63.1836L277.574 65.7268L275.177 80.0442L260.047 77.5009Z" fill="white"/>
<path d="M241.764 108.445C247.248 108.445 251.695 103.989 251.695 98.4917C251.695 92.9947 247.248 88.5386 241.764 88.5386C236.279 88.5386 231.833 92.9947 231.833 98.4917C231.833 103.989 236.279 108.445 241.764 108.445Z" fill="#254A63"/>
<path d="M232.294 118.977C234.973 118.977 237.144 116.8 237.144 114.116C237.144 111.431 234.973 109.255 232.294 109.255C229.616 109.255 227.444 111.431 227.444 114.116C227.444 116.8 229.616 118.977 232.294 118.977Z" fill="#254A63"/>
<path d="M220.747 115.621C222.342 115.621 223.634 114.325 223.634 112.727C223.634 111.129 222.342 109.834 220.747 109.834C219.153 109.834 217.86 111.129 217.86 112.727C217.86 114.325 219.153 115.621 220.747 115.621Z" fill="#254A63"/>
<defs>
<linearGradient id="paint0_linear" x1="171.178" y1="104.596" x2="159.879" y2="108.11" gradientUnits="userSpaceOnUse">
<stop stop-color="#D38278"/>
<stop offset="1" stop-color="#F6B9AD" stop-opacity="0"/>
</linearGradient>
<linearGradient id="paint1_linear" x1="146.937" y1="89.0281" x2="147.318" y2="100.67" gradientUnits="userSpaceOnUse">
<stop stop-color="#DA9C68"/>
<stop offset="1" stop-color="#DA9C68" stop-opacity="0"/>
</linearGradient>
<linearGradient id="paint2_linear" x1="179.415" y1="76.572" x2="178.686" y2="98.895" gradientUnits="userSpaceOnUse">
<stop stop-color="#DA9C68"/>
<stop offset="1" stop-color="#DA9C68" stop-opacity="0"/>
</linearGradient>
<clipPath id="clip0">
<rect width="355" height="252" fill="white"/>
</clipPath>
</defs>
</svg>

<svg fill="none" xmlns="http://www.w3.org/2000/svg" viewBox="0 0 355 252">
  <g clip-path="url(#clip0)">
    <path d="M152.62 179.63s.18-13.7-23.18-7.29c-23.12 6.35-47.78 81.36-47.78 81.36s10.08 7.72 14.05 8.92c3.96 1.2 28.73-44.58 32.06-42.7 2.35 1.32 4.56 29.9 4.56 29.9s27.8-59.24 20.29-70.2z" fill="#254A63"/>
    <path d="M159.6 184.8s20.31-18.51 34.9-15.55c21.82 4.44 42.32 61.24 42.86 66.67.54 5.43-4.6 23.76-26.01 12.35-7.5-3.99-17.1-28.4-15.94-25.95 1.17 2.46-2.38 20.97-2.38 20.97s-39.15-46.1-33.42-58.48z" fill="#254A63"/>
    <path d="M197.4 231.72c.65-21.94-4.39-52.57-2.86-62.12 0 0-20.75-5.86-33.92-4.66-13.2 1.2-22.4 4.66-23.84 5.27-2.45 1.04-16.79 135.5-15.4 141.77 1.7 7.62 80.26 7.23 73.84-3.5 0 0 1.95-69.29 2.18-76.76z" fill="#0B8A85"/>
    <path d="M122.34 176.78s-8.2 147.03-8.2 151.26c0 4.23 15.6 2.53 17.71 2.96 2.12.42 11.9-158.96 11.9-162.37 0-1.13-21.4 3.87-21.4 8.15z" fill="#254A63"/>
    <path d="M196.3 169.25s-8.54-2.93-14.84-3.15c-1.27-.05-4.94 91.6-4.94 104.3 0 3-1.7 56.74-2.12 58.01-.42 1.27 30-2.97 31.69-5.5 1.69-2.55-5.14-140.53-9.78-153.66z" fill="#254A63"/>
    <path d="M175.39 165.42l-1.6-41.43-16.11 1.13-2.31 40.47c4.75 3.37 14.87 3.44 20.02-.17z" fill="#EEAB67"/>
    <path d="M136.18 106.27c2.64 6.85 2.59 12.13-1.88 14.1-4.46 2-14.1-.62-16.74-7.47-2.64-6.86-1.16-14.02 3.3-16 4.47-1.99 12.68 2.52 15.32 9.37z" fill="#FBCA8E"/>
    <path d="M125.16 114.4c3.59 23.46 20.28 39.21 43.82 37.13 21.42-1.9 36.23-31.9 36.84-59.28.6-27.37-14.04-49.02-39.9-48.62-39.61.61-48.31 21.33-40.76 70.77z" fill="#FBCA8E"/>
    <path d="M193.19 104.09c-2.73 6.82-2.74 12.09 1.7 14.13 4.43 2.04 14.1-.45 16.83-7.27 2.72-6.83 1.33-14-3.1-16.04-4.44-2.04-12.71 2.36-15.44 9.18z" fill="#FBCA8E"/>
    <path d="M158.88 101.6c6.28-1.25 11.56-.22 12.74 4.45 1.17 4.66-5.17 7.5-10.38 8.12-5.21.61-7.24-11.58-2.36-12.56z" fill="url(#paint0_linear)"/>
    <path d="M156.12 102.49l1.24-.48c.4-.13.9-.3 1.47-.45.58-.14 1.23-.3 1.96-.4a15.88 15.88 0 015.07-.04c.92.15 1.88.4 2.81.82.93.42 1.84 1 2.56 1.84a4.62 4.62 0 011.1 3.12 5.2 5.2 0 01-1.12 2.91 9.25 9.25 0 01-1.98 1.92c-.68.53-1.38.93-2.04 1.27-.65.35-1.27.6-1.82.83-.56.2-1.04.39-1.45.5l-1.28.37 1.17-.63c.38-.18.81-.46 1.32-.73.26-.14.51-.32.8-.49.27-.17.56-.34.85-.55.58-.4 1.2-.86 1.78-1.39a9.77 9.77 0 001.62-1.81 4.2 4.2 0 00.78-2.25 3.21 3.21 0 00-.82-2.15 5.85 5.85 0 00-2.05-1.51 11.7 11.7 0 00-2.47-.84c-.84-.18-1.68-.3-2.48-.35-.8-.05-1.56-.07-2.27-.04-1.42.04-2.6.2-3.44.32-.83.14-1.3.2-1.3.2z" fill="#A56052"/>
    <path d="M156.15 88.36c.57 4.31 2.98 13.2-9.12 14.22-12.1 1.01-9.23-9.9-9.23-9.9s12.82-3.76 18.35-4.32z" fill="url(#paint1_linear)"/>
    <path d="M150.69 102.73a1.65 1.65 0 100-3.31 1.65 1.65 0 000 3.3z" fill="#643619"/>
    <path d="M153.53 88.04c-13.88.97-21.5 6.5-12.67 6.43 8.82-.07 21.83-7.07 12.67-6.43z" fill="#994D1D"/>
    <path d="M170.7 75.58c-.58 4.31-3.93 25.99 8.18 27 12.1 1.01 9.06-18.36 9.06-18.36s-11.72-8.07-17.25-8.64z" fill="url(#paint2_linear)"/>
    <path d="M175.53 102.73a1.65 1.65 0 100-3.31 1.65 1.65 0 000 3.3z" fill="#643619"/>
    <path d="M173.67 75.42c13.3 4.09 19.48 11.2 10.9 9.13-8.58-2.06-19.67-11.82-10.9-9.13z" fill="#994D1D"/>
    <path d="M134.6 107.5c2.99 0 5.4-.75 5.4-1.69 0-.93-2.41-1.69-5.4-1.69-2.98 0-5.4.76-5.4 1.7 0 .93 2.42 1.68 5.4 1.68z" fill="#F4A29D"/>
    <path d="M191.53 107.5c2.98 0 5.4-.75 5.4-1.69 0-.93-2.42-1.69-5.4-1.69-2.98 0-5.4.76-5.4 1.7 0 .93 2.42 1.68 5.4 1.68z" fill="#F4A29D"/>
    <path d="M127.04 130.67c5.05 11.46 12.1 19.73 20.18 22.9 14.62 5.77 27.28 3.98 38.1-2.13 24.36-13.76 19.5-83.43 19.5-83.43l-6.89 1.35s1.81 45.73-4.53 53.22c-2.7 3.2-13.63-3.03-28.09-3.17-17.1-.16-31.14 7.47-33.63 4.05-3-4.1-7.55-28.01-2.17-54.45 2.14-10.54-10.51-.34-10.51-.34s1.51 47.19 8.04 62z" fill="#B06523"/>
    <path d="M149.42 41.06l4.34-3.12c5.78-4.8 25.17-9.78 32.19-4-1.66.04-.51 1.02-2.18 1.1 9.67 2.19 25.55 6.34 26.66 27.48.5 9.6-.96 22.84-2.78 31.99-2.22.22-2.1-.78-3.86.64a6.52 6.52 0 00-2.2 2.67c.44-10.73-3.03-25.29-10.78-33.77-3.61-3.96-13.26-2.19-18.5-3.31-6.55-1.4-12.69-3.73-17.72-8.02-5.83-4.97-9.24-7.6-5.17-11.66z" fill="#B06523"/>
    <path d="M157.74 37.75c6.26 2.14 14.4 3.82 17.94 9.87l-1.94-.59c6.57 7.89-12.96 29.34-18 34.46-5.74 5.85-13.21 8.8-20.4 10.54-.16-1.26-.02-2.66.27-3.97.3-.75.51-1.47.58-2.09-.22.65-.42 1.36-.58 2.09-.8 2.02-2.24 4.3-3.4 5.48-2.68 2.76-9.01 11.38-9.62 18.09-8.73-34.85-10.37-55.03 5.87-69.67 8.23-7.43 24.97-5.68 29.28-4.2z" fill="#B06523"/>
    <path d="M148.78 132.61l.27-.06c.18-.03.43-.13.77-.14.34 0 .8-.02 1.27.13a5.78 5.78 0 011.5.62c.53.27 1.05.6 1.61.9.28.16.57.3.87.43.3.14.6.3.92.4.63.27 1.32.4 2 .58.7.1 1.41.27 2.15.26l1.1.08 1.1-.03 1.08-.02 1.06-.1c.7-.06 1.38-.08 2.02-.19.63-.09 1.25-.16 1.81-.22.57-.06 1.08-.17 1.54-.23l1.19-.17 1.05-.12-.98.4-1.14.42c-.44.15-.93.36-1.49.5l-1.8.47c-.65.18-1.34.28-2.06.39l-1.1.17c-.37.04-.76.05-1.14.07l-1.16.06-1.19-.06c-.78-.02-1.57-.22-2.34-.34a12.8 12.8 0 01-4.04-1.85c-.56-.37-1.04-.79-1.49-1.1a6.71 6.71 0 00-1.26-.8c-.4-.22-.76-.29-1.07-.37-.32-.06-.6-.04-.77-.06l-.28-.02z" fill="#46271E"/>
    <path d="M196.47 170.57c7.78 17.47 35.02 45.54 39.06 58.33 4.05 12.78-6.07 23.54-18.67 19.96-12.6-3.59-18.98-31.5-22.1-42.9-3.1-11.38-7-21.98-9.95-24.79.8-5.7 7.28-10.2 11.66-10.6z" fill="#FBCA8E"/>
  </g>
  <defs>
    <linearGradient id="paint0_linear" x1="171.18" y1="104.6" x2="159.88" y2="108.11" gradientUnits="userSpaceOnUse">
      <stop stop-color="#D38278"/>
      <stop offset="1" stop-color="#F6B9AD" stop-opacity="0"/>
    </linearGradient>
    <linearGradient id="paint1_linear" x1="146.94" y1="89.03" x2="147.32" y2="100.67" gradientUnits="userSpaceOnUse">
      <stop stop-color="#DA9C68"/>
      <stop offset="1" stop-color="#DA9C68" stop-opacity="0"/>
    </linearGradient>
    <linearGradient id="paint2_linear" x1="179.41" y1="76.57" x2="178.69" y2="98.89" gradientUnits="userSpaceOnUse">
      <stop stop-color="#DA9C68"/>
      <stop offset="1" stop-color="#DA9C68" stop-opacity="0"/>
    </linearGradient>
    <clipPath id="clip0">
      <path fill="#fff" d="M0 0h355v252H0z"/>
    </clipPath>
  </defs>
</svg>
